X:1
T:Joyeusement
T:Jean de Castro
T:Source : La fleur des chansons à 3---Louvain---P.Phalèse---1574. Editor : André Vierendeels (17/09/18) Notes : Original clefs : G2, C2, C3 Original note values have been halved Editorial accidentals above the staff 
T:Joyeusement
T:©
T:©
T:©
T:©
T:©
C:Jean de Castro
Z:©
%%score [ 1 2 3 ]
L:1/8
Q:1/4=96
M:2/2
K:C
V:1 treble nm="Soprano" snm="S"
V:2 treble nm="Alto" snm="A"
V:3 treble-8 nm="Tenor" snm="T"
V:1
 z8 | G2 cd e2 g2 | f2 e2 ddef | gG G/A/B/c/ d/e/ f2 f | e2 z2 z Gcd | e3 c d c3/2B/4A/4B | %6
w: |Joy- eu- se- ment, sans|nul faux tours, ioy- eu- se-|ment, ioy- eu- * * * * * * se-|ment ioy- eu- se-|ment sans nul faux _ _ _|
 c2 z c ef g2- | gefg e3 c | z4 z2 z c | ef g2 z G2 c- | cB A2 Gg e2 | c2 z c2 def | g e2 f gfed | %13
w: tours, et sans pen- ser|_ à vi- le- ni- e,|et|sans pen- ser à vi-|* le- ni- e, les da-|mes ser- vi- ray tous-|iours, ser- vi- ray tous- iours du|
 e2 z c f2 d2 | e2 c2 AG A2 | B8 | z2 g2 g3 f | e4 z2 c2 | c3 B ABcd | e2 c2 B2 A2 | f4 edef | %21
w: corps, du corps, des|biens, tant qu'au- ray vi-|e,|et en des-|pit, et|en de- pit _ _ _|_ de ia- lou-|si- e, _ _ _|
 gf/e/ d2 z4 | z8 | z2 c2 e2 g2- | gg c2 f2 e2 | d4 z2 d2 | egfe dc B2 | c2 z G AB c2 | %28
w: _ _ _ _||et des en-|* vi- eux le bon-|iour don-|ray à tou- te mes a- my-|es, ioy- eu- se- ment|
 z Gcd e2 g2 | f2 e2 ddef | gG G/A/B/c/ d/e/ f2 f | e2 z2 z Gcd | e3 c d c3/2B/4A/4B | c8 |] %34
w: ioy- eu- se- ment sans|nul faux tours, ioy- eu- se-|ment, ioy- eu- * * * * * * se-|ment, ioy- eu- se-|ment sans nul faux _ _ _|tours.|
V:2
 C2 FG A2 c2 | B2 A3 G z G | ABcc B2 A2 | G2 z G A2 F2 | G2 z A Bc A2 | z2 E2 F2 D2 | EGAA c3 B | %7
w: Joy- eu- se- ment sans|nul faux tours, ioy-|eu- se- ment sans nul faux|tours, sans nul faux|tours, ioy- eu- se- ment|sans nul faux|tours, et sans pen- ser à|
 ccAG z cBA | B2 z G AB c2- | cABc AE z E | EG ^F2 G2 z c | A2 G A2 BcA | G G2 F EDCG- | %13
w: vi- le- ni- e, et sans pen-|ser et sans pen- ser|_ à vi- le- ni- e, à|vi- le- ni- e, les|da- mes ser- vi- ray tou-|iours, ser- vi- ray tous- iours du|
 G c2 A2 d z B | cGAA EG ^F2 | G2 G2 G3 F | E4 z2 C2 | C3 B, A,4 | z2 F2 F3 F | E2 A2 GG c2- | %20
w: _ corps, de biens, du|corps, de biens, tant qu'au- ray vi-|e, et en des-|pit, et|en des- pit,|et en des-|pit de ia- lou- *|
 cB/A/ B2 c4 | z2 G2 B2 c2- | cc G2 A2 B2 | cC E2 G3 G | E2 A3 B c2- | c2 B2 A2 z G | cBAG FE D2 | %27
w: * * * si- e,|et des en-|* vi- eux le bon-|iour, et des en- vi-|eux le _ _|_ bon- iour don-|ray à tou- tes mes a- my-|
 E2 C2 FGAc | B2 A3 G z G | ABcc B2 A2 | G2 z G A2 F2 | G2 z A Bc A2 | z2 E2 F2 D2 | E8 |] %34
w: es, ioy- eu- se- ment sans|nul faux tours, ioy-|eu- se- ment sans nul faux|tours, sans nul faux|tours, ioy- eu- se- ment|sans nul faux|tours.|
V:3
 z8 | z8 | z4 G2 cd | e2 g2 f2 d2 | ccef gefd | c2 A2 F2 G2 | c2 z2 z4 | z4 c2 ef | g3 e fgec | %9
w: ||Joy- eu- se-|ment sans nul faux|tours, ioy- eu- se- ment sans nul faux|tours, sans nul faux|tours,|et sans pen-|ser à vi- le- ni- e,|
 z4 z2 c2 | AG d2 e2 z2 | z8 | z c2 d ef g2 | c2 f2 d2 g2 | z c2 A2 e d2 | G4 z2 g2 | g3 f e4 | %17
w: à|vi- le- ni- e,||ser- vi- ray tou- iours|du corps, des biens,|tant qu'au- ray vi-|e, et|en des- pit,|
 z2 c2 c3 B | A2 F2 FGAB | c3 d e2 f2 | d4 c2 c2 | e2 g3 g c2 | f2 e2 d2 z G | A2 c3 c G2 | %24
w: et en des-|pit de ia- * * *|* * * lou-|si- e, et|des en- vi- eux|le bon- iour, et|des en- vi- eux|
 z2 f4 c2 | g4 z4 | z4 z2 G2 | c>d e2 z4 | z8 | z4 G2 cd | e2 g2 f2 d2 | ccef gefd | c2 A2 F2 G2 | %33
w: le bon-|iour|ioy-|eu- se- ment,||ioy- eu- se-|ment sans nul faux|tours, ioy- eu- se- ment, ioy- eu- se-|ment sans nul faux|
 c8 |] %34
w: tours.|

